public/images/type-icons/dragon.svg

<svg fill="none" height="512" viewBox="0 0 512 512" width="512" xmlns="http://www.w3.org/2000/svg"><path clip-rule="evenodd" d="m280.702 254.881c3.47-2.116 6.414-6.55 8.788-11.478 31.245 12.77 53.202 42.946 53.202 78.137 0 46.75-38.75 84.649-86.55 84.649-19.622 0-37.719-6.387-52.236-17.15-4.762-2.255-8.68-4.421-11.886-6.194-4.973-2.749-8.234-4.552-10.276-4.27-5.969.823-4.236 6.315-2.661 11.304 1.069 3.389 2.066 6.546.523 7.848-1.614 1.364-6.842-3.621-12.951-9.445-8.316-7.929-18.264-17.414-22.955-14.565-3.709 2.253-.108 8.364 4.3 15.844l.327.555c1.862 3.162 4.02 6.382 5.989 9.32 4.003 5.971 7.227 10.783 5.614 11.597-1.95.984-15.536-8.186-26.985-20.917-4.419-4.913-8.699-10.239-12.677-15.188v-.001c-8.707-10.834-15.961-19.859-20.033-18.79-4.8985 1.286-1.1929 11.39 4.252 21.113 2.546 4.547 5.541 9.177 8.134 13.186v.001c4.033 6.234 7.094 10.965 5.984 11.547-1.498.783-14.679-12.07-23.6316-28.267-5.3175-9.621-9.7825-20.253-13.3973-28.86-3.9201-9.335-6.8402-16.288-8.763-16.988-6.6806-2.431-6.6806 11.19-4.0012 30.849.3495 2.565.87 5.255 1.5109 7.994 25.9842 84.073 105.8052 145.288 200.2442 145.288 115.517 0 209.161-91.588 209.161-204.568 0-107.532-84.829-195.685-192.608-203.938.136-5.0656 2.78-15.111 2.78-15.111s19.027-46.0358 20.033-55.8731c.066-.6529.145-1.3624.23-2.118 1.185-10.629 3.39-30.3919-13.612-30.3919-9.08 0-13.302 6.75464-18.131 14.4799v.0001c-1.854 2.9657-3.798 6.0745-6.14 8.999-16.868 21.0646-45.232 47.3698-61.315 61.3841-33.994 29.6209-67.346 53.9649-86.798 68.1629l-.001.001c-8.847 6.457-14.818 10.816-16.666 12.617-13.926 13.576-63.8582 103.642-63.8582 103.642s-16.1475 28.896-10.408 34.757c5.7395 5.86 19.5803 4.517 19.5803 4.517s185.9409-42.657 202.5879-46.021c4.482-.906 7.646-1.429 10.075-1.83 6.595-1.089 7.779-1.285 15.225-5.828zm-131.467-54.817c-9.981 9.487-26.534 32.132-26.534 32.132s30.764 1.895 47.707-14.21c16.944-16.106 13.062-43.553 13.062-43.553s-24.255 16.144-34.235 25.631z" fill="#fff" fill-rule="evenodd"/></svg>

<svg width="512" height="512" viewBox="0 0 512 512" fill="none" xmlns="http://www.w3.org/2000/svg">
<path fill-rule="evenodd" clip-rule="evenodd" d="M280.702 254.881C284.172 252.765 287.116 248.331 289.49 243.403C320.735 256.173 342.692 286.349 342.692 321.54C342.692 368.29 303.942 406.189 256.142 406.189C236.52 406.189 218.423 399.802 203.906 389.039C199.144 386.784 195.226 384.618 192.02 382.845C187.047 380.096 183.786 378.293 181.744 378.575C175.775 379.398 177.508 384.89 179.083 389.879C180.152 393.268 181.149 396.425 179.606 397.727C177.992 399.091 172.764 394.106 166.655 388.282C158.339 380.353 148.391 370.868 143.7 373.717C139.991 375.97 143.592 382.081 148 389.561L148.327 390.116C150.189 393.278 152.347 396.498 154.316 399.436C158.319 405.407 161.543 410.219 159.93 411.033C157.98 412.017 144.394 402.847 132.945 390.116C128.526 385.203 124.246 379.877 120.268 374.928L120.268 374.927C111.561 364.093 104.307 355.068 100.235 356.137C95.3365 357.423 99.0421 367.527 104.487 377.25C107.033 381.797 110.028 386.427 112.621 390.436L112.621 390.437C116.654 396.671 119.715 401.402 118.605 401.984C117.107 402.767 103.926 389.914 94.9734 373.717C89.6559 364.096 85.1909 353.464 81.5761 344.857C77.656 335.522 74.7359 328.569 72.8131 327.869C66.1325 325.438 66.1325 339.059 68.8119 358.718C69.1614 361.283 69.6819 363.973 70.3228 366.712C96.307 450.785 176.128 512 270.567 512C386.084 512 479.728 420.412 479.728 307.432C479.728 199.9 394.899 111.747 287.12 103.494C287.256 98.4284 289.9 88.383 289.9 88.383C289.9 88.383 308.927 42.3472 309.933 32.5099C309.999 31.857 310.078 31.1475 310.163 30.3919C311.348 19.7629 313.553 0 296.551 0C287.471 0 283.249 6.75464 278.42 14.4799L278.42 14.48C276.566 17.4457 274.622 20.5545 272.28 23.479C255.412 44.5436 227.048 70.8488 210.965 84.8631C176.971 114.484 143.619 138.828 124.167 153.026L124.167 153.026L124.166 153.027C115.319 159.484 109.348 163.843 107.5 165.644C93.574 179.22 43.6418 269.286 43.6418 269.286C43.6418 269.286 27.4943 298.182 33.2338 304.043C38.9733 309.903 52.8141 308.56 52.8141 308.56C52.8141 308.56 238.755 265.903 255.402 262.539C259.884 261.633 263.048 261.11 265.477 260.709C272.072 259.62 273.256 259.424 280.702 254.881ZM149.235 200.064C139.254 209.551 122.701 232.196 122.701 232.196C122.701 232.196 153.465 234.091 170.408 217.986C187.352 201.88 183.47 174.433 183.47 174.433C183.47 174.433 159.215 190.577 149.235 200.064Z" fill="white"/>
</svg>
